X:1
T:Shaw's -- Reel
R:reel
B:Ryan's Mammoth Collection
N: 386
Z: Contributed by Ray Davies,  ray:davies99.freeserve.co.uk
M:2/4
L:1/16
K:G
vDC|\
B,DGA BGDB, | CEAB .c2vDC | B,DGA BGcB | AGFE .D2vDC |
B,DGA BGDB, | CEAB .c2vDC | B,GFG ECA,B, | G,B,DG G,2:|
|:vga|\
bgfg egfg | dgBg dgBg | bgfg dgfg | eaag .a2(ga) |
bgfg egfg | dgBg dBGB | c"4"eAc BdGB | AGFA G2:|
